X: 20296
T: John Blessing's
R: reel
M: 4/4
K: Gmajor
|:AFDF EFDF|AFAB e2dB|AFDF EFDF|AFAB d2dB:|
|:defd efdB|AFAB ~e2dB|1 defd efdB|
AFAB d3A:|2 df~f2 afbf|afef ~d3B||

